picto/arrow-pointing-right-and-down-green.svg

<svg class="color-immutable" width="24" height="24" viewBox="0 0 24 24" fill="none" xmlns="http://www.w3.org/2000/svg"><g clip-path="url(#a)"><path d="M0 22.5v-21C0 .675.675 0 1.5 0h21c.825 0 1.5.675 1.5 1.5v21c0 .825-.675 1.5-1.5 1.5h-21C.675 24 0 23.325 0 22.5Z" fill="#237F52"/><path d="m21 21-.195-12.923L16.4 3.672l-.194 9.004-7.229-7.23-1.766 1.765-1.765 1.766 7.23 7.229-9.004.194 4.405 4.405L21 21Z" fill="#fff"/></g><defs><clipPath id="a"><path fill="#fff" d="M0 0h24v24H0z"/></clipPath></defs></svg>

<svg class="color-immutable" width="24" height="24" viewBox="0 0 24 24" fill="none" xmlns="http://www.w3.org/2000/svg"><path d="M0 22.5V1.5C0 0.675 0.675 0 1.5 0H22.5C23.325 0 24 0.675 24 1.5V22.5C24 23.325 23.325 24 22.5 24H1.5C0.675 24 0 23.325 0 22.5Z" fill="#237F52"/><path d="M21 21L20.805 8.077L16.4 3.672L16.206 12.676L8.977 5.446L7.211 7.211L5.446 8.977L12.676 16.206L3.672 16.4L8.077 20.805L21 21Z" fill="white"/></svg>
